X:24
T: An t-oileán úr, S. 78
N: I0523
O: Irland
S: O BOYLE, Sean: 25 Irish Folksongs, Dublin 1976]
R: Auswandererlied]
M: 4/4
L: 1/8
K: D
 | d2A2c2d2 | e4d2dc | A2A2AGE2 | D4
=C2DE | F3EF2G2 | A3GA2C2 | EE3DD3 | D6
A2 | d2A2c2d2 | e4d2dc | A2A2AGE2 | D4
=C2DE | F3EF2G2 | A3GA2C2 | EE4D3 | D6z2

